X: 841
T: Alborada Asturiana
R: polka
M: 2/4
K: Amajor
|a>b a/2b/2a/2b/2|a>b a/2b/2a/2b/2|a/2g/2f/2e/2 f/2e/2d/2B/2|cA/2c/2 cA/2c/2|cA/2c/2 A/2c/2A/2c/2|
BG/2B/2 BG/2B/2|BG/2B/2 G/2B/2G/2B/2|cA/2c/2 cA/2c/2|cA/2c/2 A/2c/2A/2c/2|BG/2B/2 BG/2B/2|BG/2B/2 G/2B/2G/2B/2:|
Ac/2e/2 aa|ec/2e/2 aa|fd/2f/2 aa|fd/2f/2 aa|ec/2e/2 ec/2e/2|ec/2e/2 c/2e/2c/2e/2|
dB/2d/2 dB/2d/2|dB/2d/2 B/2d/2B/2d/2|cA/2c/2 cA/2c/2|cA/2c/2 A/2c/2A/2c/2|BG/2B/2 BG/2B/2|BG/2B/2 G/2B/2G/2B/2|
Ac/2e/2 aa|ec/2e/2 aa|fd/2f/2 aa|b/2a/2g/2a/2 b/2a/2g/2f/2|ec/2e/2 aa|b/2a/2g/2a/2 b/2a/2g/2a/2|
fd/2f/2 aa|b/2a/2g/2a/2 b/2a/2g/2f/2|eA/2c/2 cA/2c/2|cA/2c/2 A/2c/2A/2c/2|BG/2B/2 BG/2B/2|BG/2B/2 G/2B/2G/2B/2|
Ac/2e/2 aa|ec/2e/2 d/2c/2d/2B/2|c/2A/2c/2e/2 aa|ec/2e/2 d/2c/2d/2B/2|
Aa- aa|ec/2e/2 d/2c/2d/2B/2|c/2A/2c/2e/2 aa|ec/2e/2 d/2c/2d/2B/2|
|:A/2B/2A/2G/2 A/2B/2c/2d/2|e/2f/2e/2d/2 e/2f/2e/2d/2|c/2B/2A/2G/2 A/2B/2c/2d/2|e/2f/2e/2d/2 e/2d/2c/2B/2:|A4||

